X:8
T:La gigue de Villeneuve au Chemin [ok]
R:
S:
N:
A:Champagne
G:
O:France
Z:<anamnese@laposte.net>
M:2/4
L:1/8
Q:1/4=135
K:C
Gc | e>d ef | ed GB | d>c de | c2 Gc | ed e>f | ed GB | d>c de |
c2 ee/e/ | ee/e/ ef | ed dd/d/ | dd/d/ de | c2 ee/e/ | ee/e/ ef | ed dd/d/ | dd/d/ de | c2z :|
